X:524
T:Meeting of The Waters #1, The 
C:Joe Buchanan's Scottish Tome - Page 025.1
I:025 1
R:Reel
Z:Carl Allison
L:1/8
M:2/4
K:Dmaj
A>B | "D"d2  df    "D"A2  d>c        | "G"Bd  BG "D"A2 d>e | "D"fa  Aa     "Bm"gf ed | "E7"f2 e2  e2     "A7"A>B     |
| "D"d2  df    "D"A2  "D7"d>c    | "G"Bd  BG "D"A2 d>e | "Bm"fa "Em"gf "A7"gA ce | "D"d2  d>e d2     f>g         |]
| "D"a>g fa    "D7"d2 fd         | "G"(B<d) BG "D"A2 d>e | "D"fa  Aa     "Bm"gf ed | "E7"f2 e2  e2     "A7"f>g     |
| "D"a>g fa"D" d2     "D7"fd     | "G"(B<d) BG "D"A2 d>e | "Bm"fa "Em"gf "A7"gf ed | "D"f2  e2  d>e    A>B         |]
| "D"d2  de    "D"f2  f>g        | "G"aA  Bd "D"A2 a>g | "D"f>g gf     "Bm"gf ed | "E7"f2 e2  e2     "A7"A>B     |
| "D"d2  d>e   "D"f2  "D7"f>g    | "G"af  ed "D"B2 d>e | "Bm"fa "Em"gf "A7"gA ce | "D"    d2  d>e    d2      a>g |]
| "D"f2  a>g   fa     "D"     fA | "G"Bd BG "D"A2 d>c | "G"BG  Bd     "Em"gf ed | "E7"f2 e2  "A7"e2 a>g         |
| "D"f2  a>g   fa"D"  fA         | "G"Bd gB "D"A2 d>c | "D"fa "Bm"gf "Em"fA ce | "D"d2    d>e    A>B         |]

